X:1
T:Romford, 886.886
T:Romford, 886.886
T:Arthur Henry Brown, 1880
T:Public Domain Courtesy of the Cyber Hymnal™
C:Arthur Henry Brown, 1880
Z:Public Domain
Z:Courtesy of the Cyber Hymnal™
%%score ( 1 2 ) ( 3 4 )
L:1/8
Q:1/4=110
M:4/4
K:Eb
V:1 treble 
V:2 treble 
V:3 bass 
V:4 bass 
V:1
 B,2 | E3 F G2 A2 | [EB]3 [Ec] [EB]2 [DB]2 | E3 [EF] [EG]2 [EB]2 | [Ec]3 [Ed] [Ec]2 [Ee]2 | %5
 [FA]2 [FB]2 (AG) (FE) | [DB]6 [EB]2 | [Ac]3 [Ad] [Ge]2 [Gc]2 | B2 (A[=EG]) F2 C2 | (FG) A2 G2 B2 | %10
 A2 G2 F2 [=Ec]2 | (FA) (GF) [B,E]2 [B,D]2 | [B,E]6 |] %13
V:2
 B,2 | E3 F G2 A2 | x8 | E3 x5 | x8 | x4 E2 C2 | x8 | x8 | F3 F2 C2 x | FG A2 G2 B2 | A2 G2 F2 x2 | %11
 F2 C2 x4 | x6 |] %13
V:3
 B,,2 | E,3 F, G,2 [F,A,]2 | [G,B,]3 [A,C] [G,B,]2 [B,,B,]2 | [C,E,]3 [C,F,] [C,G,]2 [G,B,]2 | %4
 [A,C]3 [B,D] [A,C]2 [G,B,]2 | [F,C]2 [D,B,]2 [E,B,]2 [A,,A,]2 | [B,,F,]6 [G,B,]2 | %7
 [F,A,]3 [F,A,] [C,C]2 [E,C]2 | [F,C]3 [G,B,] [A,C]2 C,2 | F,G, A,2 G,2 B,2 | A,2 G,2 F,2 [C,G,]2 | %11
 [A,,F,]3 [A,,F,] [B,,G,]2 [B,,A,]2 | [E,G,]6 |] %13
V:4
 B,,2 | E,3 F, G,2 x2 | x8 | x8 | x8 | x8 | x8 | x8 | x6 C,2 | (F,G,) A,2 G,2 B,2 | %10
 A,2 G,2 F,2 x2 | x8 | x6 |] %13

